static/assets/img/icons/theme/food/beer.svg

<svg height="24" viewBox="0 0 24 24" width="24" xmlns="http://www.w3.org/2000/svg"><g fill="none" fill-rule="evenodd"><path d="m0 0h24v24h-24z" opacity="0"/><g fill="#000"><path d="m22 7v2h-3c-.5522847 0-1 .44771525-1 1v3c0 .5522847.4477153 1 1 1h3v2h-3c-1.6568542 0-3-1.3431458-3-3v-3c0-1.65685425 1.3431458-3 3-3z" fill-rule="nonzero" opacity=".3" transform="matrix(-1 0 0 1 38 0)"/><path d="m4.75777452 5c.80726134-1.20598574 2.18201743-2 3.74222548-2 1.5602081 0 2.9349641.79401426 3.7422255 2z" opacity=".3"/><path d="m7 5c0-2.209139 1.790861-4 4-4s4 1.790861 4 4z" opacity=".3"/><path d="m12.0500091 5c.2316351-1.14112016 1.2405119-2 2.4499909-2s2.2183558.85887984 2.4499909 2z" opacity=".3"/><path d="m8 8c.55228475 0 1 .44771525 1 1v9c0 .5522847-.44771525 1-1 1-.55228475 0-1-.4477153-1-1v-9c0-.55228475.44771525-1 1-1zm5 0c.5522847 0 1 .44771525 1 1v9c0 .5522847-.4477153 1-1 1-.5522847 0-1-.4477153-1-1v-9c0-.55228475.4477153-1 1-1zm-8.93944786-3h12.87889576c.5522847 0 1 .44771525 1 1 0 .01958668-.0005755.03916914-.0017257.05872202l-.8269836 14.05872198c-.0621839 1.0571253-.9375961 1.882556-1.9965488 1.882556h-9.22837964c-1.05895262 0-1.93436491-.8254307-1.99654875-1.882556l-.82698364-14.05872198c-.03243128-.55133171.38822063-1.02456512.93955235-1.05699639.01955288-.00115017.03913534-.00172563.05872202-.00172563z"/></g></g></svg>

<svg width="24px" height="24px" viewBox="0 0 24 24" version="1.1" xmlns="http://www.w3.org/2000/svg" xmlns:xlink="http://www.w3.org/1999/xlink">
    <title>Icon For Beer</title>
    <g stroke="none" stroke-width="1" fill="none" fill-rule="evenodd">
        <rect opacity="0" x="0" y="0" width="24" height="24"></rect>
        <path d="M22,7 L22,9 L19,9 C18.4477153,9 18,9.44771525 18,10 L18,13 C18,13.5522847 18.4477153,14 19,14 L22,14 L22,16 L19,16 C17.3431458,16 16,14.6568542 16,13 L16,10 C16,8.34314575 17.3431458,7 19,7 L22,7 Z" fill="#000000" fill-rule="nonzero" opacity="0.3" transform="translate(19.000000, 11.500000) scale(-1, 1) translate(-19.000000, -11.500000) "></path>
        <path d="M4.75777452,5 C5.56503586,3.79401426 6.93979195,3 8.5,3 C10.0602081,3 11.4349641,3.79401426 12.2422255,5 L4.75777452,5 Z" fill="#000000" opacity="0.3"></path>
        <path d="M7,5 C7,2.790861 8.790861,1 11,1 C13.209139,1 15,2.790861 15,5 L7,5 Z" fill="#000000" opacity="0.3"></path>
        <path d="M12.0500091,5 C12.2816442,3.85887984 13.290521,3 14.5,3 C15.709479,3 16.7183558,3.85887984 16.9499909,5 L12.0500091,5 Z" fill="#000000" opacity="0.3"></path>
        <path d="M8,8 L8,8 C8.55228475,8 9,8.44771525 9,9 L9,18 C9,18.5522847 8.55228475,19 8,19 L8,19 C7.44771525,19 7,18.5522847 7,18 L7,9 C7,8.44771525 7.44771525,8 8,8 Z M13,8 L13,8 C13.5522847,8 14,8.44771525 14,9 L14,18 C14,18.5522847 13.5522847,19 13,19 L13,19 C12.4477153,19 12,18.5522847 12,18 L12,9 C12,8.44771525 12.4477153,8 13,8 Z M4.06055214,5 L16.9394479,5 C17.4917326,5 17.9394479,5.44771525 17.9394479,6 C17.9394479,6.01958668 17.9388724,6.03916914 17.9377222,6.05872202 L17.1107386,20.117444 C17.0485547,21.1745693 16.1731425,22 15.1141898,22 L5.88581016,22 C4.82685754,22 3.95144525,21.1745693 3.88926141,20.117444 L3.06227777,6.05872202 C3.02984649,5.50739031 3.4504984,5.0341569 4.00183012,5.00172563 C4.021383,5.00057546 4.04096546,5 4.06055214,5 Z" fill="#000000"></path>
    </g>
</svg>
